icons/picture-edit.svg

<svg width="20" height="16" xmlns="http://www.w3.org/2000/svg"><path d="M2,13 L2,9 C2,9.55228475 1.55228475,10 1,10 C0.44771525,10 0,9.55228475 0,9 L0,7 C0,6.44771525 0.44771525,6 1,6 C1.55228475,6 2,6.44771525 2,7 L2,3 C2,3.55228475 1.55228475,4 1,4 C0.44771525,4 0,3.55228475 0,3 C0,1.34314575 1.34314575,0 3,0 C3.55228475,0 4,0.44771525 4,1 C4,1.55228475 3.55228475,2 3,2 L7,2 C6.44771525,2 6,1.55228475 6,1 C6,0.44771525 6.44771525,0 7,0 L10,0 C10.5522847,0 11,0.44771525 11,1 C11,1.55228475 10.5522847,2 10,2 L14,2 C13.4477153,2 13,1.55228475 13,1 C13,0.44771525 13.4477153,0 14,0 L17,0 C18.6568542,0 20,1.34314575 20,3 L20,13 C20,14.6568542 18.6568542,16 17,16 L3,16 C1.34314575,16 0,14.6568542 0,13 C0,12.4477153 0.44771525,12 1,12 C1.55228475,12 2,12.4477153 2,13 Z M18,8.5026802 L18,3 C18,2.44771525 17.5522847,2 17,2 L3,2 C2.44771525,2 2,2.44771525 2,3 L2,13 C2,13.5522847 2.44771525,14 3,14 L6.50438248,14 L10.8932397,6.67849374 C11.7451066,5.25740655 13.5877,4.79596234 15.0087872,5.64782923 C15.2178633,5.77315933 15.4108848,5.92350444 15.5835825,6.09553916 L18,8.5026802 Z M18,11.3256835 L14.1720913,7.51246986 C14.1145254,7.45512495 14.0501849,7.40500991 13.9804929,7.36323321 C13.5067971,7.07927758 12.8925994,7.23309232 12.6086437,7.70678805 L8.83619472,14 L17,14 C17.5522847,14 18,13.5522847 18,13 L18,11.3256835 Z M6,9 C4.34314575,9 3,7.65685425 3,6 C3,4.34314575 4.34314575,3 6,3 C7.65685425,3 9,4.34314575 9,6 C9,7.65685425 7.65685425,9 6,9 Z M6,7 C6.55228475,7 7,6.55228475 7,6 C7,5.44771525 6.55228475,5 6,5 C5.44771525,5 5,5.44771525 5,6 C5,6.55228475 5.44771525,7 6,7 Z"/></svg>

<svg width="20" height="16" xmlns="http://www.w3.org/2000/svg" fill="currentColor"><path d="M2 13V9a1 1 0 1 1-2 0V7a1 1 0 1 1 2 0V3a1 1 0 1 1-2 0 3 3 0 0 1 3-3 1 1 0 1 1 0 2h4a1 1 0 1 1 0-2h3a1 1 0 0 1 0 2h4a1 1 0 0 1 0-2h3a3 3 0 0 1 3 3v10a3 3 0 0 1-3 3H3a3 3 0 0 1-3-3 1 1 0 0 1 2 0Zm16-4.497V3a1 1 0 0 0-1-1H3a1 1 0 0 0-1 1v10a1 1 0 0 0 1 1h3.504l4.39-7.322a3 3 0 0 1 4.69-.582L18 8.503Zm0 2.823-3.828-3.814a1 1 0 0 0-1.563.195L8.836 14H17a1 1 0 0 0 1-1v-1.674ZM6 9a3 3 0 1 1 0-6 3 3 0 0 1 0 6Zm0-2a1 1 0 1 0 0-2 1 1 0 0 0 0 2Z"/></svg>
